images/svg/icons-shop/shopimg.svg

<svg width="23" height="20" viewBox="0 0 23 20" fill="none" xmlns="http://www.w3.org/2000/svg">
<path d="M11.6807 9.40619C11.8952 9.61886 12.1814 9.73706 12.4674 9.73706C12.7773 9.73706 13.0634 9.61886 13.2541 9.40619L16.9492 5.5538C17.3544 5.12847 17.3544 4.41941 16.9014 4.01767C16.4724 3.59234 15.7572 3.61591 15.352 4.06499L13.6655 5.81985C13.0126 6.49919 11.9249 6.4965 11.2754 5.81395C10.8702 5.38862 10.155 5.36486 9.72597 5.76663C9.29695 6.16839 9.27298 6.87743 9.67824 7.30276L11.6807 9.40619Z" fill="#D4DCE2"/>
<path d="M21.8127 3.33234C21.8128 3.33233 21.8128 3.33231 21.8127 3.33231C21.2168 3.19056 20.6208 3.54501 20.5016 4.13584L18.9521 10.6588C18.7614 11.4861 18.0224 12.0532 17.1642 12.0532L9.44035 12.0534C8.58215 12.0534 7.81938 11.4389 7.65242 10.6117L5.55454 0.850826C5.43531 0.354427 5.00629 0 4.48183 0H1.09668C0.500706 0 0 0.4964 0 1.08725C0 1.6781 0.500706 2.1745 1.09668 2.1745H1.95865C2.9019 2.1745 3.71692 2.83354 3.91435 3.75589L5.48303 11.0845C5.88827 12.9044 7.53319 14.2515 9.41639 14.2515H17.1164C18.9996 14.2515 20.597 12.9989 21.026 11.179L22.5755 4.65599C22.7664 4.06499 22.3849 3.47415 21.8127 3.33237C21.8127 3.33237 21.8127 3.33235 21.8127 3.33234Z" fill="#D4DCE2"/>
<path d="M11.1089 17.4891C11.1089 18.481 10.2978 19.2852 9.29707 19.2852C8.29652 19.2852 7.48535 18.481 7.48535 17.4891C7.48535 16.497 8.29652 15.6929 9.29707 15.6929C10.2978 15.6929 11.1089 16.497 11.1089 17.4891Z" fill="#D4DCE2"/>
<path d="M18.9283 17.4891C18.9283 18.481 18.1171 19.2852 17.1164 19.2852C16.1159 19.2852 15.3047 18.481 15.3047 17.4891C15.3047 16.497 16.1159 15.6929 17.1164 15.6929C18.1172 15.6929 18.9283 16.497 18.9283 17.4891Z" fill="#D4DCE2"/>
</svg>

<svg width="23" height="20" fill="none" xmlns="http://www.w3.org/2000/svg"><path d="M11.68 9.406c.215.213.501.331.787.331.31 0 .596-.118.787-.33l3.695-3.853c.405-.426.405-1.135-.048-1.536a1.08 1.08 0 0 0-1.549.047L13.665 5.82c-.652.68-1.74.676-2.39-.006a1.123 1.123 0 0 0-1.549-.047 1.1 1.1 0 0 0-.048 1.536l2.003 2.103Z" fill="#D4DCE2"/><path d="M21.813 3.332c-.596-.141-1.192.213-1.311.804l-1.55 6.523c-.19.827-.93 1.394-1.788 1.394H9.44c-.858 0-1.62-.614-1.788-1.441L5.555.85A1.095 1.095 0 0 0 4.482 0H1.097C.5 0 0 .496 0 1.087s.5 1.088 1.097 1.088h.862a2 2 0 0 1 1.955 1.58l1.569 7.33c.405 1.82 2.05 3.166 3.933 3.166h7.7c1.884 0 3.481-1.252 3.91-3.072l1.55-6.523c.19-.591-.191-1.182-.763-1.324ZM11.109 17.49c0 .991-.811 1.795-1.812 1.795-1 0-1.812-.804-1.812-1.796s.812-1.796 1.812-1.796 1.812.804 1.812 1.796ZM18.928 17.49c0 .991-.81 1.795-1.812 1.795-1 0-1.811-.804-1.811-1.796s.81-1.796 1.811-1.796 1.812.804 1.812 1.796Z" fill="#D4DCE2"/></svg>
